X:1
T:Title
%%score { ( 1 3 4 5 ) | ( 2 6 ) }
L:1/8
M:4/4
K:Db
V:1 treble nm="Grand Piano"
V:3 treble 
V:4 treble 
V:5 treble 
V:2 bass 
V:6 bass 
V:1
 z4 z2[Q:1/4=96] [DF]>[EG] | [FA]2 [FA]>[_F=G] [=FA]2 [DF]>[E_G] | %2
 [FA]2 [FA]>[_F=G] [=FA]2 [FB]>[Fc] | [Fe]2 [Fd]>[A,FA] [A,DF]2 [DFc]>[DFB] | B2 z2 z4 | %5
 G2 G>F G2 [CE]>[DF] |[M:3/4] G2 G>F G2 |[M:1/4] A>A |[M:4/4] c2 c>c d2 d>d | e6[K:bass] z2 | %10
 [Fd]2 [Fd]2 [Fd]2 [Fc]>[FB] | F6[K:bass] z2 | [Fd]2 [Fd]2 [Fd]2 [Fc]>[FB] | [CEG]6 z2 | %14
 G2 G>F G2 F>E |[M:3/4] AA =G2 A2 |[M:1/4] B>B |[M:4/4] c2 e>c BF =G2 | A2- [CA-]2 [DA-]2 [GA]2 | %19
 [Fd]2 [Fd]2 [Fd]2 [Fc]>[FB] | F6[K:bass] z2 | [=DB]2 [DB]2 [DB]2 [DA]>[B,DF] | %22
 z2 z z/[K:bass] F,/ G,2[K:treble] B>c | d2 d>c d2 c>d | ff [Ad]2 [FA]2 [E=G][FA] | %25
 [GB]2 [=G=A][GB] cc _A2 |[M:3/4] d2- [Gd-]2 [Fd]2 |] %27
V:2
 z4 z2 [D,A,]>[D,A,] | [D,D]2 [D,D]>[D,D] [D,D]2 [D,A,]>[D,A,] | %2
 [D,D]2 [D,D]>[D,D] [D,D]2 [D,D]>[D,D] | [D,A,]2 [D,A,]>D, D,2 D,>D, | E,2 A,4 [G,A,C]>[F,A,D] | %5
 [E,A,C]2 [E,A,C]>[=D,A,C] [E,A,C]2 [A,,A,]>[A,,A,] | %6
[M:3/4][K:treble] [A,CE]2 [A,CE]>[A,_C=D] [A,=CE]2 |[M:1/4] [A,CE]>[A,CE] | %8
[M:4/4] [A,E]2 [A,EG]>[A,EG] [A,DF]2 [A,DF]>[A,DF] | [A,,C]2 z2 z4 | %10
 [D,A,]2 [D,A,]2 [D,A,]2 [D,A,]>[D,A,] | [A,D]4 z z/ C/ B,>A, | %12
 [D,A,]2 [D,A,]2 [D,A,]2 [D,A,]>[D,A,] | A,,>C, E,>B, A,2 .G,>[F,A,D] | %14
 [E,A,C]2 [E,A,C]>[=D,A,C] [E,A,C]2 [A,C]>[A,C] |[M:3/4] [F,A,D][F,A,D] [_F,B,D]2 [=F,A,D]2 | %16
[M:1/4] [F,A,D]>[F,A,D] |[M:4/4] [E,A,E]2 [E,CE]>[E,A,E] [E,A,D][E,A,D] [E,B,D]2 | %18
 [A,,A,]2 [G,A,]2 [F,A,]2 [E,C]2 | [D,A,]2 [D,A,]2 [D,A,]2 [D,A,]>[D,A,] | [A,D]4 z z/ C/ B,>A, | %21
 [B,,F,]2 [B,,F,]2 [B,,F,]2 [B,,F,]>B,, | z z/ =D,/ E,4 [G,D]>[G,A,D] | %23
 [G,B,G]2 [G,B,G]>[G,=A,G][K:treble] [G,B,G]2 [=G,B,_F]>[G,B,F] | %24
 [A,DF][A,DF][K:bass] [F,D]2 [D,D]2 [D,D][D,D] | [G,D]2 [E,E][E,E][K:treble] [A,EG][A,EG] [A,CG]2 | %26
[M:3/4][K:bass] A,2 B,2 A,2 |] %27
V:3
 x8 | x8 | x8 | x8 | [CG]2- [C-GA-]2 [CA]2 E>F | x8 |[M:3/4] x6 |[M:1/4] x2 |[M:4/4] x8 | %9
 z2 C4[K:bass] z2 | x8 | z2[K:bass] z z/ A,/- A,2 z2 | x8 | A,4 z2 [A,CE]>F | x8 |[M:3/4] x6 | %16
[M:1/4] x2 |[M:4/4] x8 | C2 z2 z4 | x8 | z2[K:bass] z z/ A,/- A,2 z2 | x8 | %22
 [B,EG]6[K:bass][K:treble] z2 | x8 | x8 | x8 |[M:3/4] F2 z2 z2 |] %27
V:4
 x8 | x8 | x8 | x8 | x8 | x8 |[M:3/4] x6 |[M:1/4] x2 |[M:4/4] x8 | z4[K:bass] A,2 z2 | x8 | %11
 z z/[K:bass] E,/ F,2 D2 z2 | x8 | x8 | x8 |[M:3/4] x6 |[M:1/4] x2 |[M:4/4] x8 | x8 | x8 | %20
 z z/[K:bass] E,/ F,2 D2 z2 | x8 | x7/2[K:bass] x5/2[K:treble] x2 | x8 | x8 | x8 |[M:3/4] x6 |] %27
V:5
 x8 | x8 | x8 | x8 | x8 | x8 |[M:3/4] x6 |[M:1/4] x2 |[M:4/4] x8 | z2 z z/[K:bass] B,/ z G,F,E, | %10
 x8 | x3/2[K:bass] x13/2 | x8 | x8 | x8 |[M:3/4] x6 |[M:1/4] x2 |[M:4/4] x8 | x8 | x8 | %20
 x3/2[K:bass] x13/2 | x8 | x7/2[K:bass] x5/2[K:treble] x2 | x8 | x8 | x8 |[M:3/4] x6 |] %27
V:6
 x8 | x8 | x8 | x8 | x8 | x8 |[M:3/4][K:treble] x6 |[M:1/4] x2 |[M:4/4] x8 | %9
 [A,G]2- [C,A,-G-]>[B,,A,G-] [A,,G-][G,,G]F,,E,, | x8 | D,6 z2 | x8 | x8 | x8 |[M:3/4] x6 | %16
[M:1/4] x2 |[M:4/4] x8 | x8 | x8 | D,6 z2 | x8 | E,2 z2 z4 | x4[K:treble] x4 | x2[K:bass] x6 | %25
 x4[K:treble] x4 |[M:3/4][K:bass] D,6 |] %27

